X: 34
T: Money Musk
%R: strathspey
B: Urbani & Liston "A Selection of Scotch, English Irish, and Foreign Airs", Edinburgh 1800, p.14 #1
F: http://www.vwml.org/browse/browse-collections-dance-tune-books/browse-urbani1800
Z: 2014 John Chambers <jc:trillian.mit.edu>
M: C|
L: 1/8
K: G
e |\
d>GB>G d>Gc>e | d>GB>G AB/A/ c>e | d>GB>G Bc/d/ dg | e>cA>c BGG :: e/f/ |
g>dB>g d>gB>g | g>dc>g B>gA>f | g>de>g d>gB>g | e>cA>d BG/G/ ef |
g>dB>g B>gA>f | g>dc>g B>gA>f | g>de>f d>gc>g | B>gA>g B>GG :|

%%sep 1 1 500
%%sep 1 1 500
